build/img/wire-g.svg

<svg width="12" height="12" viewBox="0 0 12 12" fill="none" xmlns="http://www.w3.org/2000/svg">
<circle cx="6" cy="6" r="6" fill="#1A1A1A"/>
<path d="M6.10969 2.358C4.11169 2.358 2.91469 3.681 2.91469 5.706C2.91469 7.794 4.05769 9.117 5.89369 9.117C6.82069 9.117 7.48669 8.775 7.85569 8.235L7.89169 9H8.90869V5.535H6.09169V6.588H7.72069V6.696C7.72069 7.74 6.78469 8.091 6.09169 8.091C4.97569 8.091 4.24669 7.263 4.24669 5.706C4.24669 4.149 5.01169 3.384 6.10069 3.384C6.82969 3.384 7.45969 3.735 7.66669 4.455H8.89069C8.67469 3.249 7.64869 2.358 6.10969 2.358Z" fill="white"/>
</svg>

<svg width="12" height="12" viewBox="0 0 12 12" fill="none" xmlns="http://www.w3.org/2000/svg"><circle cx="6" cy="6" r="6" fill="#1A1A1A"/><path d="M6.11 2.358c-1.998 0-3.195 1.323-3.195 3.348 0 2.088 1.143 3.411 2.979 3.411.927 0 1.593-.342 1.962-.882L7.892 9h1.017V5.535H6.092v1.053H7.72v.108c0 1.044-.936 1.395-1.63 1.395-1.115 0-1.844-.828-1.844-2.385S5.012 3.384 6.1 3.384c.729 0 1.359.351 1.566 1.071H8.89c-.215-1.206-1.241-2.097-2.78-2.097z" fill="#fff"/></svg>
